X:60
T:Wylam Away
Z:Jack Campin, http://www.campin.me.uk/
S:Northumbrian Minstrelsy
M:6/8
L:1/8
K:G
e/f/|gdB    gGB   |gdB    A2e/f/|gdB    gGB   |gdB    G2:|
e   |dB/c/d dB/c/d|dB/c/d A2e   |dB/c/d dB/c/d|dB/c/d G2:|
c   |BAG    edB   |gdB    ABc   |BAG    edB   |gdB    G2:|

